src/components/00-materials/images-raw/Keys.svg

<svg width="96" height="96" viewBox="0 0 96 96" fill="none" xmlns="http://www.w3.org/2000/svg">
<path d="M46.9457 24.7952C46.9728 22.5089 45.1414 20.6335 42.8551 20.6064C40.5688 20.5793 38.6934 22.4107 38.6663 24.697C38.6391 26.9833 40.4706 28.8587 42.7568 28.8858C45.0431 28.9129 46.9186 27.0815 46.9457 24.7952Z" stroke="#00008F" stroke-width="2" stroke-linecap="round" stroke-linejoin="round"/>
<path d="M31.05 66.4001L38.01 47.1401M28.66 43.4201L23.86 49.7401L27.11 59.0001L22.78 61.8301L25.78 68.8801L20 72.6001L24.72 82.0001L32.31 78.1401L43.21 48.0001C47.1513 47.4251 50.7805 45.5289 53.5032 42.6219C56.226 39.7149 57.8809 35.9694 58.1969 31.999C58.5129 28.0286 57.4713 24.0685 55.2427 20.7674C53.0141 17.4663 49.7305 15.0199 45.9298 13.8287C42.1291 12.6376 38.0366 12.7724 34.3225 14.211C30.6084 15.6496 27.4929 18.3069 25.4863 21.7474C23.4797 25.188 22.7009 29.208 23.2775 33.1491C23.8541 37.0901 25.7519 40.7185 28.66 43.4401V43.4201Z" stroke="#00008F" stroke-width="2" stroke-linecap="round" stroke-linejoin="round"/>
<path d="M43.69 47.9101C45.1164 48.6739 46.6405 49.2391 48.22 49.5901C49.135 49.7969 50.0643 49.9339 51 50.0001L51.37 57.8801L59.79 62.8801L58.3 67.8001L65.07 71.3001L63.07 77.7901L72.66 82.0001L76 74.1801L65.06 44.1801C67.4885 41.4895 69.0216 38.1112 69.4476 34.5119C69.8737 30.9125 69.1716 27.2697 67.4384 24.0864C65.7052 20.9032 63.0263 18.3367 59.7719 16.7413C56.5174 15.1459 52.8478 14.6004 49.27 15.1801M67.53 66.0201L60.54 46.8701" stroke="#00008F" stroke-width="2" stroke-linecap="round" stroke-linejoin="round"/>
</svg>

<svg width="96" height="96" viewBox="0 0 96 96" fill="none" xmlns="http://www.w3.org/2000/svg"><path d="M46.946 24.795a4.14 4.14 0 10-8.28-.098 4.14 4.14 0 008.28.098z" stroke="#00008F" stroke-width="2" stroke-linecap="round" stroke-linejoin="round"/><path d="M31.05 66.4l6.96-19.26m-9.35-3.72l-4.8 6.32L27.11 59l-4.33 2.83 3 7.05L20 72.6l4.72 9.4 7.59-3.86L43.21 48a17.58 17.58 0 10-14.55-4.56v-.02z" stroke="#00008F" stroke-width="2" stroke-linecap="round" stroke-linejoin="round"/><path d="M43.69 47.91a17.756 17.756 0 004.53 1.68c.915.207 1.844.344 2.78.41l.37 7.88 8.42 5-1.49 4.92 6.77 3.5-2 6.49L72.66 82 76 74.18l-10.94-30a17.5 17.5 0 00-15.79-29m18.26 50.84l-6.99-19.15" stroke="#00008F" stroke-width="2" stroke-linecap="round" stroke-linejoin="round"/></svg>
